app/images/delete-icon.svg

<svg xmlns="http://www.w3.org/2000/svg" viewBox="0 0 1000 1000"><path fill="#010101" d="M235.1 932.1s14.9 67.9 91.6 67.9h346.7c76.7 0 91.6-67.9 91.6-67.9l68.4-665.5H166.7l68.4 665.5zm398.2-565.4c0-18.4 14.9-33.3 33.3-33.3s33.3 14.9 33.3 33.3l-33.3 500c0 18.4-14.9 33.3-33.3 33.3S600 885.1 600 866.7l33.3-500zm-166.6 0c0-18.4 14.9-33.3 33.3-33.3s33.3 14.9 33.3 33.3v500c0 18.4-14.9 33.3-33.3 33.3s-33.3-14.9-33.3-33.3v-500zm-133.4-33.4c18.4 0 33.3 14.9 33.3 33.3l33.3 500c0 18.4-14.9 33.3-33.3 33.3s-33.3-14.9-33.3-33.3l-33.3-500c0-18.3 14.9-33.3 33.3-33.3zm480-199.9H666.7V66.7C666.7 16.1 650.3 0 600 0H400c-46.1 0-66.7 22.4-66.7 66.7v66.7H186.7c-29.5 0-53.3 22.4-53.3 50 0 27.7 23.9 50 53.3 50h626.7c29.5 0 53.3-22.4 53.3-50s-23.9-50-53.4-50zm-213.3 0H400V66.7h200v66.7z"/></svg>

<?xml version="1.0" encoding="utf-8"?>
<!-- Generator: Adobe Illustrator 17.1.0, SVG Export Plug-In . SVG Version: 6.00 Build 0)  -->
<!DOCTYPE svg PUBLIC "-//W3C//DTD SVG 1.1//EN" "http://www.w3.org/Graphics/SVG/1.1/DTD/svg11.dtd">
<svg version="1.1" id="Layer_1" xmlns="http://www.w3.org/2000/svg" xmlns:xlink="http://www.w3.org/1999/xlink" x="0px" y="0px"
	 viewBox="0 0 1000 1000" enable-background="new 0 0 1000 1000" xml:space="preserve">
<path fill="#010101" d="M235.1,932.1c0,0,14.9,67.9,91.6,67.9h346.7c76.7,0,91.6-67.9,91.6-67.9l68.4-665.5H166.7L235.1,932.1z
	 M633.3,366.7c0-18.4,14.9-33.3,33.3-33.3c18.4,0,33.3,14.9,33.3,33.3l-33.3,500c0,18.4-14.9,33.3-33.3,33.3
	c-18.4,0-33.3-14.9-33.3-33.3L633.3,366.7z M466.7,366.7c0-18.4,14.9-33.3,33.3-33.3c18.4,0,33.3,14.9,33.3,33.3v500
	c0,18.4-14.9,33.3-33.3,33.3c-18.4,0-33.3-14.9-33.3-33.3L466.7,366.7L466.7,366.7z M333.3,333.3c18.4,0,33.3,14.9,33.3,33.3
	l33.3,500c0,18.4-14.9,33.3-33.3,33.3c-18.4,0-33.3-14.9-33.3-33.3l-33.3-500C300,348.3,314.9,333.3,333.3,333.3z M813.3,133.4
	H666.7V66.7C666.7,16.1,650.3,0,600,0H400c-46.1,0-66.7,22.4-66.7,66.7v66.7H186.7c-29.5,0-53.3,22.4-53.3,50
	c0,27.7,23.9,50,53.3,50h626.7c29.5,0,53.3-22.4,53.3-50C866.7,155.8,842.8,133.4,813.3,133.4z M600,133.4H400l0-66.7h200L600,133.4
	L600,133.4z"/>
</svg>
